X:1
T:Title
%%score { 1 | 2 }
L:1/8
Q:1/4=100
M:3/4
K:Eb
V:1 treble nm="Grand Piano"
V:2 bass 
V:1
 G2 G2 G2 | A>A A4 | [FA]2 [DB]2 [DF]2 | [FA]>[EG] [EG]4 | [EG]2 [Ec]2 [C=EG]2 | %5
w: Ira~D.~Sankey * *|||||
 [CGB]>[CFA] [CFA]4 | [B,DA]2 [B,EA]2 [B,FA]2 | [B,EG]6 |] %8
w: |||
V:2
 [E,B,E]2 [E,B,E]2 [E,B,E]2 | [F,B,E]>[F,B,D] [F,B,D]4 | [B,,B,]2 [B,,B,]2 [B,,B,]2 | %3
 [D,B,]>[E,B,] [E,B,]4 | [C,B,]2 [C,B,]2 C,2 | F,>F, F,4 | B,,2 C,2 D,2 | E,6 |] %8

